!!!COM: Anton Webern
!!!OTL: Variations for Piano
**kern	**dynam	**kern	**dynam
*part2	*part2	*part1	*part1
*staff2	*	*staff1	*
*clefF4	*	*clefG2	*
*M2/4	*	*M2/4	*
*clefG2	*	*clefF4	*
(8bb-)	.	8ryy	.
8ryy	.	8G#	.
=1	=1	=1	=1
8r	.	4ryy	p
*	*	*clefG2	*
8an'	.	.	.
4ryy	.	8an'	.
.	.	8r	.
*clefF4	*	*	*
=2	=2	=2	=2
4c#~	p	8r	.
.	.	4ffn~	.
8r	.	.	.
8qBBn	.	.	.
8Dn'	.	8r	.
=3	=3	=3	=3
.	f	8qgggn	.
4r	.	8eeen'	.
.	.	8r	.
8r	.	4r	.
*clefG2	*	*	*
8f#^ 8ccn^ 8ffn^	.	.	.
=4	=4	=4	=4
4r	p	8c#^ 8f#^ 8ccn^	.
.	.	8r	.
*	*	*clefF4	*
(>8eeen	.	8ryy	.
8ryy	.	8Dn)	.
!!LO:LB
=5	=5	=5	=5
2ryy	.	8r	p
.	.	(>8G#	.
.	.	8bb-)	.
*	*	*clefG2	*
.	.	8gggn'	.
*clefF4	*	*	*
=6	=6	=6	=6
8BBn'	.	4r	ff
8r	.	.	.
(>8qe-	.	.	.
8Dn')	.	8ryy	.
.	.	(>8qdd#	.
8ryy	.	8eeen')	.
*clefG2	*	*	*
=7	=7	=7	=7
8r	.	4r	.
4f#~	.	.	.
.	.	4ccn~	.
8r	.	.	.
*clefF4	*	*	*
=8	=8	=8	=8
(>8qEn	.	.	ff
8Gn')	.	8ryy	.
.	.	(>8qdddn	.
8ryy	.	8bbn')	.
4r	.	8r	.
.	.	8bn 8ffn 8bb-^	.
*clefG2	*	*	*
=9	=9	=9	=9
8G#^ 8c# 8gn	.	4r	.
8r	.	.	.
8ryy	.	8an'	.
8an'	.	8ryy	.
!!LO:LB
=10	=10	=10	=10
4ryy	.	8r	p
.	.	(>8c#	.
8ffn	.	8ryy	.
8ryy	.	8ccn')	.
=11	=11	=11	=11
8f#'	.	4r	f
8r	.	.	.
8bb-	.	8ryy	.
*	*	*clefF4	*
8ryy	.	8G#	.
=	=	=	=
*-	*-	*-	*-
!!!RDF**kern: > = above
